!!!OTL: LIEB ANNA SASS AUF EINEM STEIN
!!!ARE: Europa, Mitteleuropa, Deutschland, Schleswig
!!!SCT: E0042N
!!!YEM: Copyright 1995, estate of Helmut Schaffrath.
**kern
*ICvox
*Ivox
*M2/4
*k[]
*C:
{8G
=1
8c
8c
8B
8A
=2
8A
8G
4G}
=3
{8A
8F
4F
=4
8A
8G
8G}
{8G
=5
8c
8c
8B
8A
=6
8A
8G
4G}
=7
{4A
4B
=8
4c
8r}
==
!!!AGN: erzaehlendes Volks - Lied, Ritter -, Raeuber - Sage, Kinder - Lied, Ballade ?
!!!ONB: ESAC (Essen Associative Code) Database: ERK1
!!!AMT: simple duple
!!!AIN: vox
!!!EED: Helmut Schaffrath
!!!EEV: 1.0
*-
